dist/images/logo/kmi_logo_01.svg

<svg width="100" height="32" viewBox="0 0 100 32" fill="none" xmlns="http://www.w3.org/2000/svg">
<path d="M43.6904 0H57.04L60.2229 16.103H60.3165L72.9733 0H85.6956L77.1205 32H66.7853L70.9699 16.3934H70.8763L59.5395 32H53.286L49.8503 15.6628H49.7567L45.3193 32H35.1152L43.6904 0Z" fill="#121C3E"/>
<path d="M89.3467 0H100L91.4249 32H80.7715L89.3467 0Z" fill="#121C3E"/>
<path d="M43.0069 0H29.6667L3.07995 20.4965L0 32H10.1386L12.4977 23.1663L17.5061 19.6721L23.9843 32H34.9654L25.2294 13.8454L43.0069 0Z" fill="#121C3E"/>
<path d="M26.1001 0H8.57527L4.00684 17.0211L26.1001 0Z" fill="#B5232B"/>
</svg>

<svg width="100" height="32" fill="none" xmlns="http://www.w3.org/2000/svg"><path d="M43.69 0h13.35l3.183 16.103h.093L72.974 0h12.723L77.12 32H66.785l4.185-15.607h-.094L59.54 32h-6.253L49.85 15.663h-.093L45.319 32H35.115L43.69 0zm45.657 0H100l-8.575 32H80.772l8.575-32zm-46.34 0h-13.34L3.08 20.497 0 32h10.139l2.359-8.834 5.008-3.494L23.984 32h10.981L25.23 13.845 43.007 0z" fill="#121C3E"/><path d="M26.1 0H8.575L4.007 17.021 26.1 0z" fill="#B5232B"/></svg>
